X:19
T:Fjellvåk (Mountain Bird)
C:Olav Luksengår Mjelva, John Ole Morken & Annlaug Børsheim
D:Newcastle Piping Festival - Andy Watchorn & Andy May: https://www.youtube.com/watch?v=ny7ZWDqNBTE
N:Joué en Gb sur la vidéo
N:Version "originale" par "The Nordic Fiddlers Bloc":
D:The Nordic Fiddlers Bloc: https://www.youtube.com/watch?v=G0br2JglbMY
R:Waltz
M:3/4
Q:1/4=108
K:G
|: B3d fg | f4 d2 | B2 d2 fg | f3d fg |
   a3g ed | c4 A2 | B3c B/A/G | A4 D2 |
   B3d fg | f4 d2 | B2 d2 fg | f3d fg |
   e3d c2 | BA G2 F2 | G6 |1 G4 G2 :|2 G3 AGF |
|: E3C EF | G2 GD GA | B2 Bc B/A/G | A3 DAB |
   c4 c2 | B3A G2 | A2 d2 d2 | d4 D2 |
   E3C EF | G2 GD GA | B2 Bc B/A/G | A3 DAB |
   ce Bd Ac | BA GF EF | G6 |1 G3 AGF :|2 G4 G2 ||

%X: 9
%T: Grainne's Jig
%C: Tommy Peoples
%D: Dezi Donnelly: Familiar Footsteps (piste 4 "The Kilfenora")
%Z: Gwen 2017-09 d'après l'interprétation de François et Carole
%R: Jig
%K: G

